X: 1
T: Rumanian bulgar(ish)    [Dfr]
%T: Moldavian tants
%T: Andy's Tune
R: bulgar, freylach
O: Abe Shwartz
D: State Ensemble of Jewish Folk Music of the Ukrainian S.S.R., Kiev 1930
Z: John Chambers <jc:trillian.mit.edu>
M: 2/4
L: 1/16
K: DPhr^F
"A"\
|: "D"D2AA A2A2 | A2G2 F3E | D2E2 F2G2 | F2E2 D4 | "D"D2AA A2G2 | F2G2 A2B2 | A8 | d8 |
|  "D"D2AA A2A2 | A2G2 F3E | D2E2 F2G2 | F2ED "Cm"C4 | z2C2 =B,2C2 | D2E2 F2E2 | "D"D8- | D4 z4 :|
"B"\
|:"Cm"z2C2 =B,2C2 | D2E2 D2C2 | z2E2 D2E2 | F2G2 F2E2 | z2G2 F2G2 | A2B2 A2G2 | "D"A6 G2 | F2E2 D4 |
| "Cm"z2C2 =B,2C2 | D2E2 D2C2 | z2E2 D2E2 | F2G2 F2E2 | A2G2 F2E2 | F2E2 D2C2 | "D"D8- |1 D4 z4 :|2 D2 ||
"C"\
|: [d2D2] B2A2 \
| "Gm"G8 | z2D2 B,2D2 | G2B2 A2G2 | "D"d2 A4 G2 | A8 | z2 A2 c2B2 | A2G2 F2G2 | A2D2 E2F2 |
| "Gm"G8 | z2D2 B,2D2 | G2B2 A2G2 | "D"d2 A4 G2 | F2G2 A2G2 | "Cm"F2C2 D2E2 | "D"D8- | D2 :|

%%sep 1 1 500
%%sep 1 1 500

